app/dist/common/images/camping-world.svg

<svg height="18" width="18" xmlns="http://www.w3.org/2000/svg"><path d="m0 0h18v18h-18z" fill="#00669e"/><path d="m13.5 12.999h-1l-.997-5-1.003 5h-1l-1.495-6.999h1l.943 5 1.055-5h.997l1.057 5 .943-5h1zm-7.153-.999c-1.144 0-2.433-.97-2.347-2.602s1.296-2.398 2.393-2.398c.653 0 1.126.201 1.438.422l.174-1.014c-.36-.23-.956-.408-1.713-.408-1.58 0-3.292 1.194-3.292 3.5 0 2.295 1.703 3.5 3.292 3.5a3.78 3.78 0 0 0 1.114-.144l.425-1.2c-.33.24-.832.344-1.484.344z" fill="#fff"/></svg>

<!-- by TradingView --><svg width="18" height="18" xmlns="http://www.w3.org/2000/svg"><path fill="#00669E" d="M0 0h18v18H0z"/><path d="M13.5 12.999h-1l-.997-5-1.003 5h-1L8.005 6h1l.943 5 1.055-5H12l1.057 5L14 6h1l-1.5 6.999zM6.347 12C5.203 12 3.914 11.03 4 9.398 4.086 7.766 5.296 7 6.393 7c.653 0 1.126.201 1.438.422l.174-1.014C7.645 6.178 7.049 6 6.292 6 4.712 6 3 7.194 3 9.5 3 11.795 4.703 13 6.292 13a3.78 3.78 0 001.114-.144l.425-1.2c-.33.24-.832.344-1.484.344z" fill="#fff"/></svg>
